X:45
T:Reel 45
M:4/4
K:Dmaj
L:1/8
FG|ADFD ECA,C|DFDF G2FG|AdBG AGFG|A^GBc dBAG|FDED FB,CDEG|FDFA d2cB|AGFD EDCE|DFEC D2|DE|FdBd ABAG|FDAD CDEG|FDFD ADBG|FDAF G2AG|FDAD GBGE|FDFA d2cB|Adcd BGEC|DCDC D2|
